assets/images/industries/finance.svg

<svg enable-background="new 0 0 512 512" viewBox="0 0 512 512" xmlns="http://www.w3.org/2000/svg"><circle cx="256" cy="266.5" fill="#535354" r="245"/><path d="m256.3 48.6 103.7 103.7c3.8 3.8 3.8 10 0 13.9l-160.6 160.5c-3.8 3.8-10 3.8-13.9 0l-103.7-103.7c-3.8-3.8-3.8-10 0-13.9l160.6-160.5c3.8-3.8 10.1-3.8 13.9 0z" fill="#58e0d9"/><path d="m277.1 69.3 83 83c3.8 3.8 3.8 10 0 13.9l-160.7 160.5c-3.8 3.8-10 3.8-13.9 0l-83-83c-3.8-3.8-3.8-10 0-13.9l160.7-160.5c3.8-3.8 10-3.8 13.9 0z" fill="#89f7f4"/><path d="m236.6 169.6c24.1 24.1 24.1 63.4 0 87.5s-63.4 24.1-87.5 0-24.1-63.4 0-87.5 63.3-24.2 87.5 0zm47.3-65.7-27.7-27.7c-3.8-3.8-10-3.8-13.9 0l-27.7 27.7c-3.8 3.8-3.8 10 0 13.9 19.1 19.1 50.1 19.1 69.2 0 4-3.9 4-10.1.1-13.9z" fill="#1fc9c9"/><path d="m363.9 24.4 103.7 103.7c3.8 3.8 3.8 10 0 13.9l-214.4 214.4c-3.8 3.8-10 3.8-13.9 0l-103.7-103.8c-3.8-3.8-3.8-10 0-13.9l214.4-214.3c3.8-3.9 10-3.9 13.9 0z" fill="#58e0d9"/><path d="m384.6 45.1 83 83c3.8 3.8 3.8 10 0 13.9l-214.4 214.4c-3.8 3.8-10 3.8-13.9 0l-83-83c-3.8-3.8-3.8-10 0-13.9l214.4-214.4c3.9-3.8 10.1-3.8 13.9 0z" fill="#89f7f4"/><path d="m322.3 93.6c-3.8-3.8-3.8-10 0-13.9l27.7-27.7c3.8-3.8 10-3.8 13.9 0l27.7 27.7c3.8 3.8 3.8 10 0 13.9-19.2 19-50.1 19-69.3 0zm117.6 34.5-27.7-27.7c-3.8-3.8-10-3.8-13.9 0-19.1 19.1-19.1 50.1 0 69.2 3.8 3.8 10 3.8 13.9 0l27.7-27.7c3.9-3.8 3.9-10 0-13.8zm-183.2 17.3c-24.1 24.1-24.1 63.4 0 87.5s63.4 24.1 87.5 0 24.1-63.4 0-87.5c-24.2-24.2-63.4-24.2-87.5 0z" fill="#1fc9c9"/><path d="m256 511.5c-80.5 0-151.7-36-195.1-96.9v-206.3c0-16.2 13.1-29.4 29.4-29.4h322.7c16.2 0 29.4 13.1 29.4 29.4v217.2c-44 54.3-111.2 86-186.4 86z" fill="#ffa522"/><path d="m89.3 345.3v-137c0-16.2 13.1-29.4 29.4-29.4h294.3c16.2 0 29.4 13.1 29.4 29.4v214.3c-19.6 24.2-43.8 44.5-71.4 59.6h-145c-31.9 0-62.8-11.1-87.3-31.5-31.3-26-49.4-64.7-49.4-105.4z" fill="#ffb81f"/><path d="m436.5 384.3h-127.2c-8.1 0-14.6-6.6-14.6-14.6v-48.9c0-8.1 6.6-14.6 14.6-14.6h127.2c8.1 0 14.6 6.6 14.6 14.6v48.9c0 8.1-6.6 14.6-14.6 14.6z" fill="#f47e14"/><path d="m436.5 345.3h-97.8c-8.1 0-14.6-6.6-14.6-14.6v-9.8c0-8.1 6.6-14.6 14.6-14.6h97.8c8.1 0 14.6 6.6 14.6 14.6v9.8c0 8-6.6 14.6-14.6 14.6z" fill="#ff8f1f"/><path d="m338.7 369.7c-13.5 0-24.4-10.9-24.4-24.4 0-13.5 10.9-24.4 24.4-24.4 13.5 0 24.4 10.9 24.4 24.4 0 13.5-10.9 24.4-24.4 24.4z" fill="#f9c45a"/></svg>

<?xml version="1.0" encoding="utf-8"?>
<!-- Generator: Adobe Illustrator 24.2.3, SVG Export Plug-In . SVG Version: 6.00 Build 0)  -->
<svg version="1.1" id="Layer_1" xmlns="http://www.w3.org/2000/svg" xmlns:xlink="http://www.w3.org/1999/xlink" x="0px" y="0px"
	 viewBox="0 0 512 512" style="enable-background:new 0 0 512 512;" xml:space="preserve">
<style type="text/css">
	.st0{fill:#535354;}
	.st1{fill:#58E0D9;}
	.st2{fill:#89F7F4;}
	.st3{fill:#1FC9C9;}
	.st4{fill:#FFA522;}
	.st5{fill:#FFB81F;}
	.st6{fill:#F47E14;}
	.st7{fill:#FF8F1F;}
	.st8{fill:#F9C45A;}
</style>
<g>
	<g id="Layer_2_1_">
		<circle class="st0" cx="256" cy="266.5" r="245"/>
	</g>
	<g id="Capa_1">
		<g>
			<path class="st1" d="M256.3,48.6L360,152.3c3.8,3.8,3.8,10,0,13.9L199.4,326.7c-3.8,3.8-10,3.8-13.9,0L81.8,223
				c-3.8-3.8-3.8-10,0-13.9L242.4,48.6C246.2,44.8,252.5,44.8,256.3,48.6z"/>
			<path class="st2" d="M277.1,69.3l83,83c3.8,3.8,3.8,10,0,13.9L199.4,326.7c-3.8,3.8-10,3.8-13.9,0l-83-83c-3.8-3.8-3.8-10,0-13.9
				L263.2,69.3C267,65.5,273.2,65.5,277.1,69.3z"/>
			<path class="st3" d="M236.6,169.6c24.1,24.1,24.1,63.4,0,87.5c-24.1,24.1-63.4,24.1-87.5,0c-24.1-24.1-24.1-63.4,0-87.5
				S212.4,145.4,236.6,169.6z M283.9,103.9l-27.7-27.7c-3.8-3.8-10-3.8-13.9,0l-27.7,27.7c-3.8,3.8-3.8,10,0,13.9l0,0
				c19.1,19.1,50.1,19.1,69.2,0l0,0C287.8,113.9,287.8,107.7,283.9,103.9z"/>
			<path class="st1" d="M363.9,24.4l103.7,103.7c3.8,3.8,3.8,10,0,13.9L253.2,356.4c-3.8,3.8-10,3.8-13.9,0L135.6,252.6
				c-3.8-3.8-3.8-10,0-13.9L350,24.4C353.8,20.5,360,20.5,363.9,24.4z"/>
			<path class="st2" d="M384.6,45.1l83,83c3.8,3.8,3.8,10,0,13.9L253.2,356.4c-3.8,3.8-10,3.8-13.9,0l-83-83c-3.8-3.8-3.8-10,0-13.9
				L370.7,45.1C374.6,41.3,380.8,41.3,384.6,45.1z"/>
			<path class="st3" d="M322.3,93.6c-3.8-3.8-3.8-10,0-13.9L350,52c3.8-3.8,10-3.8,13.9,0l27.7,27.7c3.8,3.8,3.8,10,0,13.9l0,0
				C372.4,112.6,341.5,112.6,322.3,93.6L322.3,93.6z M439.9,128.1l-27.7-27.7c-3.8-3.8-10-3.8-13.9,0l0,0
				c-19.1,19.1-19.1,50.1,0,69.2l0,0c3.8,3.8,10,3.8,13.9,0l27.7-27.7C443.8,138.1,443.8,131.9,439.9,128.1z M256.7,145.4
				c-24.1,24.1-24.1,63.4,0,87.5c24.1,24.1,63.4,24.1,87.5,0c24.1-24.1,24.1-63.4,0-87.5C320,121.2,280.8,121.2,256.7,145.4z"/>
			<path class="st4" d="M256,511.5c-80.5,0-151.7-36-195.1-96.9V208.3c0-16.2,13.1-29.4,29.4-29.4H413c16.2,0,29.4,13.1,29.4,29.4
				v217.2C398.4,479.8,331.2,511.5,256,511.5z"/>
			<path class="st5" d="M89.3,345.3v-137c0-16.2,13.1-29.4,29.4-29.4H413c16.2,0,29.4,13.1,29.4,29.4v214.3
				c-19.6,24.2-43.8,44.5-71.4,59.6H226c-31.9,0-62.8-11.1-87.3-31.5l0,0C107.4,424.7,89.3,386,89.3,345.3z"/>
			<path class="st6" d="M436.5,384.3H309.3c-8.1,0-14.6-6.6-14.6-14.6v-48.9c0-8.1,6.6-14.6,14.6-14.6h127.2
				c8.1,0,14.6,6.6,14.6,14.6v48.9C451.1,377.8,444.5,384.3,436.5,384.3z"/>
			<path class="st7" d="M436.5,345.3h-97.8c-8.1,0-14.6-6.6-14.6-14.6v-9.8c0-8.1,6.6-14.6,14.6-14.6h97.8c8.1,0,14.6,6.6,14.6,14.6
				v9.8C451.1,338.7,444.5,345.3,436.5,345.3z"/>
			<path class="st8" d="M338.7,369.7L338.7,369.7c-13.5,0-24.4-10.9-24.4-24.4l0,0c0-13.5,10.9-24.4,24.4-24.4l0,0
				c13.5,0,24.4,10.9,24.4,24.4l0,0C363.1,358.8,352.2,369.7,338.7,369.7z"/>
		</g>
	</g>
</g>
</svg>
